X:1
T:Title
%%score ( 1 2 ) ( 3 4 ) ( 5 6 ) ( 7 8 )
L:1/8
Q:1/4=118
M:3/2
K:Bb
V:1 treble nm="Picked Bass, Soprano Voice"
V:2 treble 
V:3 treble nm="Picked Bass, Alto Voice"
V:4 treble 
V:5 bass nm="Picked Bass, Tenor Voice"
V:6 bass 
V:7 bass nm="Picked Bass, Baritone Voice"
V:8 bass 
V:1
 z4 B8 | z4 .G8 | z4 .d8 | z4 .F8 | z4 .B8 | z4 .d8 | z4 z4 B4- | B6 .G6 | z4 .B8 | z4 z4 c4- | %10
 c8 F4- | F8 z4 | z12 | z4 z4 B4- | B6 .G6 | z4 .B8 | z4 .B8 | z4 B4 z4 | z4 z4 F4- | F8 z4 | %20
 z12 |] %21
V:2
 z4 z4 F4- | F8 B4- | B8 B4- | B8 B4- | B4 z4 F4- | F8 c4- | c4 B4 z4 | z4 F4 B4- | B4 z4 F4- | %9
 F4- [FB]4 z4 | z4 B2- [AB]2 z4 | z4 D2 E2 F4- | F4 (3:2:2G2 A4 B4- | B4 .B4 z4 | z4 F4 B4- | %15
 B4 z4 F4- | F8 c4- | c6 .A2- .[F-A]4 | F4 D2 E2 z4 | z4 G2- [GA]2 B4- | B8 z4 |] %21
V:3
 z4 z4 d4- | d4 z4 f4- | f4 d4 B4- | B4 z4 d4- | d4 d4 z4 | z4 d4 c4- | c4 z4 d4- | d6 c2 d4- | %8
 d4 z4 f4- | f8 c4- | c6 .c2- .[cd-]4 | d4 (3:2:2c2 d4 z4 | z4 g2 .f2 [df]4- | [df]4 f4 z4 | %14
 z4 B4 d4- | d4 d4 z4 | z4 .d8 | z4 B2- [Bc]2 d4- | d4 z2 .d6 | z4 g2 .f2 [df]4- | [df]8 z4 |] %21
V:4
 z4 z2 .B6 | z4 .d8 | x12 | z4 .B8 | z4 z4 f4- | f8 z4 | z4 .f8 | z4 B4 z4 | z4 .d8 | z4 .d8 | %10
 z4 B4 z4 | z4 z4 f4- | f8 z4 | z4 z4 d4- | d6 .c6 | z4 z4 f4- | f8 c4- | c8 z4 | z4 c4 f4- | %19
 f8 z4 | x12 |] %21
V:5
 z4 z4 .G,4 | z4 .G,4- .[F,-G,]4 | F,4 z4 B,4- | B,8[K:treble] F4- | F4 F4 B,4- | B,4 D4 C4- | %6
 C4 z4 F4- | F6 F2[K:bass] z4 | z4 F,4 B,4- | B,8 C4- | C6 G,2 B,4- | B,4 z2 .B,6[K:treble] | %12
 z4 D2 C2 B,4- | B,4 D4 z4 | z4 G2 F2[K:bass] z4 | z4 F,4 B,4- | B,4- [B,D]4 z4 | %17
 z4 F,2- [F,G,]2 z4 | z4 G,4[K:treble] C4- | C4- [CD]2 C2 B,4- | B,8 z4 |] %21
V:6
 z4 z2 F,4 B,2- | B,8 z4 | z4 .G,8 | z4[K:treble] .D8 | x12 | x12 | z4 .D8 | z4 G4[K:bass] B,4- | %8
 B,6 .G,6 | z4 .D8 | z4 F,4 z4 | z4 G,4[K:treble] C4- | C8 z4 | z4 z4 F4- | F8[K:bass] B,4- | %15
 B,6 .G,6 | z4 z4 C4- | C8 B,4- | B,6 .B,6[K:treble] | x12 | x12 |] %21
V:7
 z4 z4 D,4- | D,6 .G,6 | z12 | z12 | z4 .B,8 | z12 | z4 z4 B,4- | B,8 z4 | z4 F,4 B,,4- | B,,8 z4 | %10
 z4 F,4 z4 | z12 | z4 G,4 z4 | z4 z4 B,4- | B,8 z4 | z12 | z4 .G,8 | z4 F,4 B,,4- | B,,8 z4 | %19
 z4 G,4 z4 | z12 |] %21
V:8
 z4 z2 D,2 z4 | z4 .F,4 B,4- | B,4- [G,B,]4 F,4- | F,4 F,4 B,4- | B,4 z4 B,,4- | B,,4 D,4 F,4- | %6
 F,4 B,4 z4 | z4 D,2- [C,D,]2 F,4- | F,4 z2 .D,6 | z4 .G,4- .[F,-G,]4 | F,4 z2 .D,2- .[B,,-D,]4 | %11
 B,,4 F,4 F,4- | F,4 z2 .F,2- .[B,,-F,]4 | B,,4 .B,4 z4 | z4 D,2- [C,D,]2 F,4- | %15
 F,4 (3F,2- [D,-F,]2 D,2 B,,4- | B,,4 z4 F,4- | F,4 z2 .D,6 | z4 F,4 F,4- | %19
 F,4 z2 .F,2- .[B,,-F,]4 | B,,8 z4 |] %21

